X: 16633
T: Hangover P**, The
R: reel
M: 4/4
K: Amajor
e2 (3AAA A2e2|(3AAA eA fAgA|affe (3fff fe|f2af ecBc|
e2 (3AAA A2e2|(3AAA eA fAgA|affe f2 (3eee|ecBc A3B:|
|:e2af ecBc|ec~c2 BcAB|cFFE FGAc|f2af ecBc|
f2af ecBc|ec~c2 BcAB|c2 (3FFF F2 (3EEE|ecBc A3B:|

